img/warning.svg

<svg width="24" height="24" viewBox="0 0 24 24" fill="none" xmlns="http://www.w3.org/2000/svg">
<path fill-rule="evenodd" clip-rule="evenodd" d="M12.0001 3.07471C7.07872 3.07471 3.07507 7.07836 3.07507 11.9997C3.07507 16.9211 7.07872 20.9247 12.0001 20.9247C16.9214 20.9247 20.9251 16.9211 20.9251 11.9997C20.9251 7.07836 16.9214 3.07471 12.0001 3.07471ZM12 22.5C6.2103 22.5 1.5 17.7897 1.5 12C1.5 6.2103 6.2103 1.5 12 1.5C17.7897 1.5 22.5 6.2103 22.5 12C22.5 17.7897 17.7897 22.5 12 22.5Z" fill="black"/>
<path fill-rule="evenodd" clip-rule="evenodd" d="M11.9936 13.4415C11.5589 13.4415 11.2061 13.0887 11.2061 12.654V8.01406C11.2061 7.57936 11.5589 7.22656 11.9936 7.22656C12.4283 7.22656 12.7811 7.57936 12.7811 8.01406V12.654C12.7811 13.0887 12.4283 13.4415 11.9936 13.4415Z" fill="black"/>
<path fill-rule="evenodd" clip-rule="evenodd" d="M12.0045 17.0355C11.4238 17.0355 10.9492 16.5662 10.9492 15.9855C10.9492 15.4049 11.4144 14.9355 11.994 14.9355H12.0045C12.5851 14.9355 13.0545 15.4049 13.0545 15.9855C13.0545 16.5662 12.5851 17.0355 12.0045 17.0355Z" fill="black"/>
</svg>

<svg width="24" height="24" viewBox="0 0 24 24" fill="none" xmlns="http://www.w3.org/2000/svg"><path fill-rule="evenodd" clip-rule="evenodd" d="M12 3.075c-4.92 0-8.925 4.003-8.925 8.925 0 4.921 4.004 8.925 8.925 8.925 4.921 0 8.925-4.004 8.925-8.925 0-4.922-4.004-8.925-8.925-8.925zM12 22.5C6.21 22.5 1.5 17.79 1.5 12S6.21 1.5 12 1.5 22.5 6.21 22.5 12 17.79 22.5 12 22.5z" fill="#000"/><path fill-rule="evenodd" clip-rule="evenodd" d="M11.994 13.441a.788.788 0 0 1-.788-.787v-4.64a.788.788 0 0 1 1.575 0v4.64a.788.788 0 0 1-.787.787zm.011 3.594a1.054 1.054 0 0 1-1.056-1.05c0-.58.465-1.05 1.045-1.05h.01a1.05 1.05 0 1 1 0 2.1z" fill="#000"/></svg>
